svg/emoji_u1f36f.svg

<svg xmlns="http://www.w3.org/2000/svg" width="128" height="128"><path d="M16.094 50.436c-5.96-.093-6.751 23.233-6.783 26.904 0 3.68.328 7.54 1.058 11.53 1.37 7.32 4.011 13.45 7.611 18.48 5.39 7.54 12.83 12.52 20.91 15.58 8.09 3.06 16.83 4.24 25.1 4.24 11.04 0 22.92-2.09 32.93-7.96 5-2.93 9.5-6.83 13.09-11.86 3.59-5.03 6.24-11.16 7.6-18.48.75-3.98 1.07-7.84 1.07-11.53-.117-2.097-.037-4.282-.29-6.274-.251-1.991-.438-3.848-.818-5.734-.38-1.886-.883-4.221-1.383-6l-5.359 1.008-.02.008-90.99-7.588-.06.178c-1.397-1.71-2.615-2.486-3.666-2.502z" fill="#7e4011" stroke="#424242" stroke-opacity=".941" stroke-width="1.7"/><path d="M78.65 91.19c-3.81.73-5.41-3.34-4.76-6.46.2-.92.81-1.52 1.69-.88 1.02.74 1.39 1.93 2.2 2.84.71.79 3.31 1.82 2.66 3.21-.34.72-1.03 1.15-1.79 1.29z" fill="#fff"/><path d="M26.9 102.12c.39.21 5.08 1.01 4.83-.39-.14-.79-1.2-1.24-1.83-1.66-.48-.31-5.8-3.93-3.74-5.17.46-.28 3.84-.65 3.94-1.59.14-1.36-4.42-3.01-5.4-5.38-.59-1.4.62-1.69 1.36-1.83 2.02-.4 4.31-.83 4.37-1.69.09-1.34-2.18-1.95-4.5-3.35-.91-.55-4.3-3.41-1.52-3.96 1.15-.23 5.17-1.04 5.38-2.24.17-1.03-3.9-2.76-5.2-4.25-.46-.54-1.36-1.87-.51-2.43 1.11-.72 4.33-.35 6.6-.75.6-.11 2.91-.75.86-2.01-1.98-1.22-6-2.88-7.29-3.51-.26-.13-.51-.29-.8-.37-.66-.18-1.1.15-1.32.72-2.03 5.21-5.85 22.55 2.32 37.37.6 1.06 1.4 1.93 2.45 2.49z" fill="#b89278"/><path d="M63.55.84C47.54.67 27.81 6.98 19.33 21.85c-3.02 5.29-2.31 11.58-.01 16.71.25.55.6 1.04.98 1.52-.9 1.38-3.09 4.9-5.3 10.1-.095.223-.189.474-.283.703 1.427-.973 3.224-.413 5.488 2.607l.004.004c.255.45.539.885.89 1.276 5.02 5.48 14.021.37 17.811 7.42.21.41.41.86.59 1.35 1.54 4.16 5.13 6.94 9.58 7.11 5.46.21 15.61-6.41 19.53-.16 2.9 4.6 1.39 11.11 2.11 16.2.29 2.07 1.28 5.45 3.33 6.56 4.27 2.31 8.15 1.28 10.53-2.84 5.01-8.71-5.23-30.51 11.72-29.98 4.6.14 10.23 1.99 14.53-.09l5.346-1.006a74.094 74.094 0 0 0-1.125-3.725c-.65-1.96-1.361-3.78-2.051-5.43-2.28-5.39-4.54-8.96-5.4-10.23.47-.42.91-.858 1.33-1.308 1.15-1.25 2.15-2.652 2.87-4.282 2.78-6.24.34-14.719-4.57-19.369C95.7 4.13 79.31 1 63.55.84z" fill="#ffc507" stroke="#424242" stroke-linejoin="round" stroke-linecap="round" stroke-width="1.7"/><path d="M45.95 35.24c.12.04.24.07.35.11 2.1.76 4.35 1.4 6.66 1.91 3.27.72 6.7 1.14 10.12 1.27l.62.03c.21 0 .41.02.61.02.1 0 .21.01.32.01 3.94.05 7.81-.34 11.38-1.21.26-.06.55-.1.8-.17 1.73-.46 3.54-1.03 5.21-1.81 2.52-1.18 4.73-2.87 5.9-5.53.24-.51.4-1.01.53-1.5 2.27-8.12-7.96-12-15.93-13.51-2.07-.39-3.99-.63-5.5-.74-4.68-.34-9.93.16-14.51 1.04-5.2 1-10.87 3.54-13.08 8.72-.93 2.2-.84 4.17-.1 5.86 1.11 2.52 3.7 4.41 6.62 5.5zm5.2-5.01c-.76-.26-1.67-.66-2.52-1.19.03-.41.25-.79.6-1.14 1.12-1.11 3.52-1.9 4.8-2.24 4.87-1.3 10.06-1.66 15.13-1.05 2.22.27 4.47.52 6.62 1.11 1.21.33 2.95.91 3.91 1.82.45.43.74.92.69 1.5l-.06.52c-2.88 2.04-8.65 2.35-11.63 2.67-5.84.64-11.99-.13-17.54-2z" fill="#855c52" opacity=".608"/><path d="M31.34 31.67c-1.1-.81-1.95-1.99-2.11-3.16-.26-1.91.55-3.72 1.7-5.21.97-1.28 1.89-2.4 3.35-3.1.64-.3 1.25-.56 1.95-.22.83.41-.33 2.15-.62 2.6-1.33 2.11-2.12 3.95-1.47 6.47.18.71.98 2.22.59 2.94-.68 1.24-2.58.26-3.39-.32z" fill="#fff"/><path d="M20.3 40.08s2.169 4.389 11.606 6.483M107.6 39.95s-8.1 6.8-15.85 7.3" fill="none" stroke="#424242" stroke-width="1.7" stroke-linecap="round" stroke-linejoin="round"/></svg>

<?xml version="1.0" encoding="UTF-8" standalone="no"?>
<!DOCTYPE svg PUBLIC "-//W3C//DTD SVG 1.1//EN" "http://www.w3.org/Graphics/SVG/1.1/DTD/svg11.dtd">
<svg width="100%" height="100%" viewBox="0 0 128 128" version="1.1" xmlns="http://www.w3.org/2000/svg" xmlns:xlink="http://www.w3.org/1999/xlink" xml:space="preserve" xmlns:serif="http://www.serif.com/" style="fill-rule:evenodd;clip-rule:evenodd;stroke-linejoin:round;stroke-miterlimit:2;">
    <path d="M16.094,50.436C10.134,50.343 9.343,73.669 9.311,77.34C9.311,81.02 9.639,84.88 10.369,88.87C11.739,96.19 14.38,102.32 17.98,107.35C23.37,114.89 30.81,119.87 38.89,122.93C46.98,125.99 55.72,127.17 63.99,127.17C75.03,127.17 86.91,125.08 96.92,119.21C101.92,116.28 106.42,112.38 110.01,107.35C113.6,102.32 116.25,96.19 117.61,88.87C118.36,84.89 118.68,81.03 118.68,77.34C118.563,75.243 118.643,73.058 118.39,71.066C118.139,69.075 117.952,67.218 117.572,65.332C117.192,63.446 116.689,61.111 116.189,59.332L110.83,60.34L110.81,60.348L19.82,52.76L19.76,52.938C18.363,51.228 17.145,50.452 16.094,50.436Z" style="fill:rgb(126,64,17);fill-rule:nonzero;"/>
    <path d="M78.65,91.19C74.84,91.92 73.24,87.85 73.89,84.73C74.09,83.81 74.7,83.21 75.58,83.85C76.6,84.59 76.97,85.78 77.78,86.69C78.49,87.48 81.09,88.51 80.44,89.9C80.1,90.62 79.41,91.05 78.65,91.19Z" style="fill:white;fill-rule:nonzero;"/>
    <path d="M26.9,102.12C27.29,102.33 31.98,103.13 31.73,101.73C31.59,100.94 30.53,100.49 29.9,100.07C29.42,99.76 24.1,96.14 26.16,94.9C26.62,94.62 30,94.25 30.1,93.31C30.24,91.95 25.68,90.3 24.7,87.93C24.11,86.53 25.32,86.24 26.06,86.1C28.08,85.7 30.37,85.27 30.43,84.41C30.52,83.07 28.25,82.46 25.93,81.06C25.02,80.51 21.63,77.65 24.41,77.1C25.56,76.87 29.58,76.06 29.79,74.86C29.96,73.83 25.89,72.1 24.59,70.61C24.13,70.07 23.23,68.74 24.08,68.18C25.19,67.46 28.41,67.83 30.68,67.43C31.28,67.32 33.59,66.68 31.54,65.42C29.56,64.2 25.54,62.54 24.25,61.91C23.99,61.78 23.74,61.62 23.45,61.54C22.79,61.36 22.35,61.69 22.13,62.26C20.1,67.47 16.28,84.81 24.45,99.63C25.05,100.69 25.85,101.56 26.9,102.12Z" style="fill:rgb(184,146,120);fill-rule:nonzero;"/>
    <path d="M63.55,0.84C47.54,0.67 27.81,6.98 19.33,21.85C16.31,27.14 17.02,33.43 19.32,38.56C19.57,39.11 19.92,39.6 20.3,40.08C19.4,41.46 17.21,44.98 15,50.18C14.905,50.403 14.811,50.654 14.717,50.883C16.144,49.91 17.941,50.47 20.205,53.49L20.209,53.494C20.464,53.944 20.748,54.379 21.099,54.77C26.119,60.25 35.12,55.14 38.91,62.19C39.12,62.6 39.32,63.05 39.5,63.54C41.04,67.7 44.63,70.48 49.08,70.65C54.54,70.86 64.69,64.24 68.61,70.49C71.51,75.09 70,81.6 70.72,86.69C71.01,88.76 72,92.14 74.05,93.25C78.32,95.56 82.2,94.53 84.58,90.41C89.59,81.7 79.35,59.9 96.3,60.43C100.9,60.57 106.53,62.42 110.83,60.34L116.176,59.334C115.834,58.083 115.459,56.841 115.051,55.609C114.401,53.649 113.69,51.829 113,50.179C110.72,44.789 108.46,41.219 107.6,39.949C108.07,39.529 108.51,39.091 108.93,38.641C110.08,37.391 111.08,35.989 111.8,34.359C114.58,28.119 112.14,19.64 107.23,14.99C95.7,4.13 79.31,1 63.55,0.84Z" style="fill:rgb(255,197,7);fill-rule:nonzero;"/>
    <path d="M45.95,35.24C46.07,35.28 46.19,35.31 46.3,35.35C48.4,36.11 50.65,36.75 52.96,37.26C56.23,37.98 59.66,38.4 63.08,38.53L63.7,38.56C63.91,38.56 64.11,38.58 64.31,38.58C64.41,38.58 64.52,38.59 64.63,38.59C68.57,38.64 72.44,38.25 76.01,37.38C76.27,37.32 76.56,37.28 76.81,37.21C78.54,36.75 80.35,36.18 82.02,35.4C84.54,34.22 86.75,32.53 87.92,29.87C88.16,29.36 88.32,28.86 88.45,28.37C90.72,20.25 80.49,16.37 72.52,14.86C70.45,14.47 68.53,14.23 67.02,14.12C62.34,13.78 57.09,14.28 52.51,15.16C47.31,16.16 41.64,18.7 39.43,23.88C38.5,26.08 38.59,28.05 39.33,29.74C40.44,32.26 43.03,34.15 45.95,35.24ZM51.15,30.23C50.39,29.97 49.48,29.57 48.63,29.04C48.66,28.63 48.88,28.25 49.23,27.9C50.35,26.79 52.75,26 54.03,25.66C58.9,24.36 64.09,24 69.16,24.61C71.38,24.88 73.63,25.13 75.78,25.72C76.99,26.05 78.73,26.63 79.69,27.54C80.14,27.97 80.43,28.46 80.38,29.04L80.32,29.56C77.44,31.6 71.67,31.91 68.69,32.23C62.85,32.87 56.7,32.1 51.15,30.23Z" style="fill:rgb(133,92,82);fill-opacity:0.61;fill-rule:nonzero;"/>
    <path d="M31.34,31.67C30.24,30.86 29.39,29.68 29.23,28.51C28.97,26.6 29.78,24.79 30.93,23.3C31.9,22.02 32.82,20.9 34.28,20.2C34.92,19.9 35.53,19.64 36.23,19.98C37.06,20.39 35.9,22.13 35.61,22.58C34.28,24.69 33.49,26.53 34.14,29.05C34.32,29.76 35.12,31.27 34.73,31.99C34.05,33.23 32.15,32.25 31.34,31.67Z" style="fill:white;fill-rule:nonzero;"/>
    <g transform="matrix(1,0,0,1,0.05,0)">
        <path d="M107.053,39.299C107.053,39.299 103.236,42.679 98.336,44.934C96.256,45.892 93.984,46.651 91.725,46.855C91.507,46.869 91.341,47.058 91.355,47.275C91.369,47.493 91.558,47.659 91.775,47.645C94.148,47.553 96.565,46.884 98.792,45.995C104.003,43.913 108.147,40.601 108.147,40.601C108.506,40.299 108.553,39.763 108.251,39.403C107.949,39.044 107.413,38.997 107.053,39.299ZM19.538,40.457C19.538,40.457 20.521,42.406 23.945,44.286C25.771,45.289 28.313,46.293 31.82,46.949C32.033,46.996 32.245,46.862 32.292,46.649C32.339,46.436 32.205,46.224 31.992,46.177C28.679,45.325 26.309,44.213 24.627,43.137C21.837,41.353 21.062,39.703 21.062,39.703C20.854,39.283 20.344,39.11 19.923,39.318C19.503,39.526 19.33,40.036 19.538,40.457Z" style="fill:rgb(247,147,41);"/>
    </g>
</svg>
